images/ico-cleaners-yellow.svg

<svg height="45" width="46" xmlns="http://www.w3.org/2000/svg"><path d="m44.079 39.026c-.026.285-.204.515-.446.634v3.645c0 .44-.356.796-.796.796h-5.68c-.44 0-.795-.356-.795-.796v-3.645c-.242-.119-.421-.35-.447-.632-.007-.092-.854-9.223-1.808-18.608-.023-.215.044-.43.185-.595.141-.166.342-.266.559-.28.022-.001 2.313-.138 4.835-.138h.62c2.523 0 4.814.137 4.836.138.217.013.419.114.561.28.139.165.206.381.185.597-.931 9.009-1.8 18.509-1.809 18.604zm-6.126 3.483h4.087v-2.76h-4.087zm2.353-21.509h-.62c-1.564 0-3.034.052-3.912.092.767 7.571 1.447 14.805 1.659 17.065h5.126c.213-2.305.907-9.746 1.658-17.065-.877-.04-2.349-.092-3.911-.092zm-10.656 23.1h-11.232c-2.248 0-3.194-2.279-3.378-3.482-.007-.04-.01-.08-.01-.121v-23.325c0-2.894 3.548-5.678 4.879-6.621v-3.241c0-.44.355-.796.796-.796h1.724v-1.216h-1.724c-.441 0-.796-.357-.796-.796v-.552h-2.876c-.238 0-.466-.108-.616-.294l-.646-.791c-.186-.227-.231-.537-.119-.808s.364-.459.656-.487l3.622-.363c.02-.118.058-.235.128-.334.062-.086.635-.838 1.908-.838h4.139c1.272 0 1.846.753 1.908.838.097.135.148.297.148.463v3.166c0 .439-.355.796-.796.796h-1.724v1.216h1.724c.441 0 .796.356.796.796v3.243c1.332.943 4.879 3.727 4.878 6.619v23.325c0 .04-.003.081-.009.121-.185 1.203-1.131 3.482-3.38 3.482zm-3.081-40.394v-1.993c-.099-.044-.251-.087-.464-.087h-4.139c-.211 0-.363.043-.465.088v.215 1.224.553h1.724 1.62zm-2.547 1.592v1.144h.027v-1.144zm2.547 2.808h-1.724c-.115 0-.223-.027-.322-.072h-.975c-.099.045-.206.072-.323.072h-1.724v2.008h5.068zm4.879 9.066c0-2.027-3.022-4.515-4.414-5.467h-5.998c-1.392.955-4.413 3.446-4.413 5.467v23.254c.064.318.477 2.082 1.796 2.082h11.232c1.333 0 1.732-1.741 1.797-2.08zm-20.664 26.929h-6.878c-2.259 0-2.942-1.931-2.989-2.952l-.001-11.412c0-1.346.747-3.905 3.439-4.767v-3.977c-.029-.3-.053-1.097.385-1.586.223-.248.531-.386.868-.386h3.533c.29 0 .563.119.766.334.422.445.446 1.22.423 1.641l.002 3.973c2.691.862 3.438 3.421 3.44 4.768v11.374c-.048 1.059-.732 2.99-2.988 2.99zm-2.044-23.149c.005-.115.002-.236-.006-.341v.002h-2.798c-.005.088-.003.184.005.253.003.029.005.058.005.086v3.803h2.794zm3.438 8.785c-.001-.114-.063-2.865-2.835-3.384h-4c-2.774.52-2.835 3.271-2.836 3.388v11.37c.014.199.151 1.398 1.398 1.398h3.6 3.277c1.294 0 1.39-1.286 1.397-1.433z" fill="#fcd139" fill-rule="evenodd"/></svg>

<svg 
 xmlns="http://www.w3.org/2000/svg"
 xmlns:xlink="http://www.w3.org/1999/xlink"
 width="46px" height="45px">
<path fill-rule="evenodd"  fill="#fcd139"
 d="M44.079,39.026 C44.053,39.311 43.875,39.541 43.633,39.660 L43.633,43.305 C43.633,43.745 43.277,44.101 42.837,44.101 L37.157,44.101 C36.717,44.101 36.362,43.745 36.362,43.305 L36.362,39.660 C36.120,39.541 35.941,39.310 35.915,39.028 C35.908,38.936 35.061,29.805 34.107,20.420 C34.084,20.205 34.151,19.990 34.292,19.825 C34.433,19.659 34.634,19.559 34.851,19.545 C34.873,19.544 37.164,19.407 39.686,19.407 L40.306,19.407 C42.829,19.407 45.120,19.544 45.142,19.545 C45.359,19.558 45.561,19.659 45.703,19.825 C45.842,19.990 45.909,20.206 45.888,20.422 C44.957,29.431 44.088,38.931 44.079,39.026 ZM37.953,42.509 L42.040,42.509 L42.040,39.749 L37.953,39.749 L37.953,42.509 ZM40.306,21.000 L39.686,21.000 C38.122,21.000 36.652,21.052 35.774,21.092 C36.541,28.663 37.221,35.897 37.433,38.157 L42.559,38.157 C42.772,35.852 43.466,28.411 44.217,21.092 C43.340,21.052 41.868,21.000 40.306,21.000 ZM29.650,44.100 L18.418,44.100 C16.170,44.100 15.224,41.821 15.040,40.618 C15.033,40.578 15.030,40.538 15.030,40.497 L15.030,17.172 C15.030,14.278 18.578,11.494 19.909,10.551 L19.909,7.310 C19.909,6.870 20.264,6.514 20.705,6.514 L22.429,6.514 L22.429,5.298 L20.705,5.298 C20.264,5.298 19.909,4.941 19.909,4.502 L19.909,3.950 L17.033,3.950 C16.795,3.950 16.567,3.842 16.417,3.656 L15.771,2.865 C15.585,2.638 15.540,2.328 15.652,2.057 C15.764,1.786 16.016,1.598 16.308,1.570 L19.930,1.207 C19.950,1.089 19.988,0.972 20.058,0.873 C20.120,0.787 20.693,0.035 21.966,0.035 L26.105,0.035 C27.377,0.035 27.951,0.788 28.013,0.873 C28.110,1.008 28.161,1.170 28.161,1.336 L28.161,4.502 C28.161,4.941 27.806,5.298 27.365,5.298 L25.641,5.298 L25.641,6.514 L27.365,6.514 C27.806,6.514 28.161,6.870 28.161,7.310 L28.161,10.553 C29.493,11.496 33.040,14.280 33.039,17.172 L33.039,40.497 C33.039,40.537 33.036,40.578 33.030,40.618 C32.845,41.821 31.899,44.100 29.650,44.100 ZM26.569,3.706 L26.569,1.713 C26.470,1.669 26.318,1.626 26.105,1.626 L21.966,1.626 C21.755,1.626 21.603,1.669 21.501,1.714 L21.501,1.929 L21.501,3.153 L21.501,3.706 L23.225,3.706 L24.845,3.706 L26.569,3.706 ZM24.022,5.298 L24.022,6.442 L24.049,6.442 L24.049,5.298 L24.022,5.298 ZM26.569,8.106 L24.845,8.106 C24.730,8.106 24.622,8.079 24.523,8.034 L23.548,8.034 C23.449,8.079 23.342,8.106 23.225,8.106 L21.501,8.106 L21.501,10.114 L26.569,10.114 L26.569,8.106 ZM31.448,17.172 C31.448,15.145 28.426,12.657 27.034,11.705 L21.036,11.705 C19.644,12.660 16.623,15.151 16.623,17.172 L16.623,40.426 C16.687,40.744 17.100,42.508 18.419,42.508 L29.651,42.508 C30.984,42.508 31.383,40.767 31.448,40.428 L31.448,17.172 ZM10.784,44.101 L3.906,44.101 C1.647,44.101 0.964,42.170 0.917,41.149 L0.916,29.737 C0.916,28.391 1.663,25.832 4.355,24.970 L4.355,20.993 C4.326,20.693 4.302,19.896 4.740,19.407 C4.963,19.159 5.271,19.021 5.608,19.021 L9.141,19.021 C9.431,19.021 9.704,19.140 9.907,19.355 C10.329,19.800 10.353,20.575 10.330,20.996 L10.332,24.969 C13.023,25.831 13.770,28.390 13.772,29.737 L13.772,41.111 C13.724,42.170 13.040,44.101 10.784,44.101 ZM8.740,20.952 C8.745,20.837 8.742,20.716 8.734,20.611 L8.734,20.613 L5.936,20.613 C5.931,20.701 5.933,20.797 5.941,20.866 C5.944,20.895 5.946,20.924 5.946,20.952 L5.946,24.755 L8.740,24.755 L8.740,20.952 ZM12.178,29.737 C12.177,29.623 12.115,26.872 9.343,26.353 L5.343,26.353 C2.569,26.873 2.508,29.624 2.507,29.741 L2.507,41.111 C2.521,41.310 2.658,42.509 3.905,42.509 L7.505,42.509 L10.782,42.509 C12.076,42.509 12.172,41.223 12.179,41.076 L12.178,29.737 Z"/>
</svg>
